!! 00000] TT[00
!! NN
!!!OTL: Amei song ni xue shouyi
!!!ARE: Asia, China,ˇJiangxi, Shangrao
!! Ethnic Group: Han
!! IV, 238
!!!SCT: C0410
!!!YEM: Copyright 1995, estate of Helmut Schaffrath.
**kern
*ICvox
*Ivox
*M2/4
*k[]
*C:
{16gg
16gg
[8gg
16gg]
32ee
32dd
16ee
16gg
=1
8dd
8cc
8a
8r}
=2
{8gg
8gg
16ee
16dd
16gg
16ee
=3
2dd}
=4
{16a
16cc
4cc
16a
16g
=5
16g
16e
16g
16a
4cc}
=6
{16dd
16dd
16dd
16gg
16dd
16cc
8a
=7
4g
4r}
=8
{8gg
8gg
16ee
16dd
16ee
16gg
=9
8dd
8cc
8a
8r}
=10
{16a
32a
32cc
16b
16b
16a
16cc
8g
=11
8cc
8a
4r}
=12
{8g
16a
16cc
8a
16cc
16a
=13
8g
8a
4e}
=14
{16ee
16gg
16ee
16dd
16cc
16dd
16ee
16gg
=15
4.dd
8g}
=16
{16cc
16a
4cc
16a
16g
=17
8e
16e
16g
4cc}
=18
{16dd
16dd
16dd
16gg
16dd
16cc
8a
=19
2g}
==
!!!AGN: Wuge, Dengge, Mudan diao. NannÅ liqing
!! Sehr typisch; in dieser Region wurden viele neue Texte auf
!!    diese Mel. geschrieben. Sehr verbreitet.
!!!ONB: ESAC (Essen Associative Code) Database: CHINA
!!!AMT: simple duple
!!!AIN: vox
!!!EED: Helmut Schaffrath
!!!EEV: 1.0
*-
